assets/tuta/mono.svg

<svg viewBox="0 0 24 24" xmlns="http://www.w3.org/2000/svg"><path d="m23.993 7.033-5.16 16.755-.043.12a.144.144 0 0 1 -.11.091h-17.255a.14.14 0 0 1 -.13-.191l5.146-16.828a.473.473 0 0 1 .024-.076.134.134 0 0 1 .124-.091h17.231c.14 0 .202.086.173.22zm-.053-2.783-4.055-4.104c-.178-.173-.192-.144-.384-.144h-17.494a.14.14 0 0 0 -.14.14c0 .004-.004.061.044.114l.004.005 4.085 4.132c.096.096.192.12.336.12h17.533c.12 0 .182-.153.072-.263zm-19.813 1.555-3.877-3.855c-.048-.043-.105-.038-.11-.038a.14.14 0 0 0 -.14.14v16.975c0 .077.063.14.14.14a.14.14 0 0 0 .13-.092c.004-.005.004-.014.009-.024 0-.004.01-.038.01-.043l3.91-12.844c.048-.144.048-.24-.072-.36z"/></svg>

<svg xmlns="http://www.w3.org/2000/svg" viewBox="0 0 24 24"><path d="m23.993 7.033-5.16 16.755-.043.12a.14.14 0 0 1-.11.091H1.425a.14.14 0 0 1-.13-.191L6.441 6.98a1 1 0 0 1 .024-.076.13.13 0 0 1 .124-.091H23.82c.14 0 .202.086.173.22M23.94 4.25 19.885.146c-.178-.173-.192-.144-.384-.144H2.007a.14.14 0 0 0-.14.14c0 .004-.004.061.044.114l.004.005L6 4.393c.096.096.192.12.336.12h17.533c.12 0 .182-.153.072-.263zM4.127 5.805.25 1.95c-.048-.043-.105-.038-.11-.038a.14.14 0 0 0-.14.14v16.975c0 .077.063.14.14.14a.14.14 0 0 0 .13-.092c.004-.005.004-.014.009-.024 0-.004.01-.038.01-.043l3.91-12.844c.048-.144.048-.24-.072-.36z"/></svg>
